X:1
T:Title
%%score { ( 1 4 ) | ( 2 3 ) }
L:1/8
M:3/4
K:A
V:1 treble nm="Grand Piano"
V:4 treble 
V:2 bass 
V:3 bass 
V:1
 z2 z2[Q:1/4=100] [CEA]2 | [Ec]2 B2 A2 | F2 G2 A2 | [FB]2 c2 d2 | [Ec]4 [Ec]2 | [B,EB]4 E->[EF] | %6
 [B,EG]4 [A,^DF]2 |[M:2/4] E4 |[M:1/4] B2 |[M:3/4] B2 c2 [Gd]2 | [=Ge]2 [Fd]c B^A | [B,FB]4 [Fc]2 | %12
 [Fd]4 [Ed]2 | c2 B2 A2 | z B A2 G2 |[M:6/4] .[CEA]6 z6 |[M:3/4] [DA]6 | [CA]6 |] %18
V:2
 z2 z2 A,,2 | z2 D2 [A,CE]2 | [D,D]2 [E,B,]2 [F,A,C]2 | A,2- [E,A,E]2 [E,G,E]2 | %4
 [A,,A,]4 [A,,A,]2 | G,,4 z z/ A,/ | B,,4 B,,2 |[M:2/4] [E,G,]4 |[M:1/4] [E,G,E]2 | %9
[M:3/4] [E,E]2- [E,A,E]2 [E,B,]2 | [A,C]2 z E DC | D,4 [F,^A,]2 | [B,,B,]4 [E,G,]2 | %13
 [A,,A,]2 [E,G,]2 [F,A,C]2 | [D,D]2 C2 B,2 |[M:6/4] .A,,6 z6 |[M:3/4] [D,F,]6 | [A,,E,]6 |] %18
V:3
 x6 | A,,4 z2 | x6 | D,2 z2 z2 | x6 | z2 z2 C,2 | x6 |[M:2/4] x4 |[M:1/4] x2 |[M:3/4] G,2 z2 z2 | %10
 z2 D,2 F,2 | x6 | x6 | x6 | z2 [E,E]4 |[M:6/4] x12 |[M:3/4] x6 | x6 |] %18
V:4
 x6 | x6 | x6 | x6 | x6 | z2 z2 G,2 | x6 |[M:2/4] x4 |[M:1/4] x2 |[M:3/4] x6 | x6 | x6 | x6 | %13
 E4 z2 | F2 z2 z2 |[M:6/4] x12 |[M:3/4] x6 | x6 |] %18

